!!!!SEGMENT: Mlu2004-Salve_regina_Barbara.krn
!!!id: Mlu2004
!!!AGN: Motet
!!!SCT: Picker (1987)
!!!voices: 4
!!!COM: Pierre Moulu
!!!OTL: Salve, regina Barbara
**kern	**kern	**kern	**kern
*part4	*part3	*part2	*part1
*staff4	*staff3	*staff2	*staff1
*I"Bassus	*I"Tenor	*I"Altus	*I"Superius
*I'B	*I'T	*I'A	*I'S
*clefF4	*clefGv2	*clefG2	*clefG2
*k[b-]	*k[b-]	*k[b-]	*k[b-]
*F:	*F:	*F:	*F:
*M2/1	*M2/1	*M2/1	*M2/1
*met(C|)	*met(C|)	*met(C|)	*met(C|)
!!section: Prima pars: Salve, regina Barbara
!!!OMD: Prima pars: Salve, regina Barbara
=1	=1	=1	=1
0r	0r	0r	0cc
=2	=2	=2	=2
0r	0r	0r	1cc
.	.	.	[1dd
=3	=3	=3	=3
0r	0r	0f	2dd]
.	.	.	2cc
.	.	.	[1a
=4	=4	=4	=4
0r	0r	1f	1a]
.	.	[1g	1r
=5	=5	=5	=5
0r	0r	2g]	1.dd
.	.	2f	.
.	.	[1d	.
.	.	.	2dd
=6	=6	=6	=6
0r	0r	1d]	1ff
.	.	[1g	1ee
=7	=7	=7	=7
0r	0r	2g]	0dd
.	.	2g	.
.	.	1b-y	.
=8	=8	=8	=8
0r	0c	1a	1.cc
.	.	[1g	.
.	.	.	2dd
=9	=9	=9	=9
0r	1c	1g]	2ee
.	.	.	2cc
.	[1d	1f	[1ff
=10	=10	=10	=10
0F	2d]	2f	2ff]
.	2c	2g	4ee
.	.	.	4dd
.	[1A	2.a	2cc
.	.	.	2dd
.	.	4g	.
=11	=11	=11	=11
1F	1A]	2.f	1a
.	.	4e	.
[1G	1r	1d	[1b-y
=12	=12	=12	=12
2G]	1.d	1g	1b-]
2F	.	.	.
[1D	.	1f	2r
.	2d	.	[2a
=13	=13	=13	=13
1D]	1f	1r	2a]
.	.	.	2a
1r	1e	[1g	1cc
=14	=14	=14	=14
1.G	1d	2g]	1b-y
.	.	2g	.
.	2r	2b-y	1g
2G	[2d	4a	.
.	.	4g	.
=15	=15	=15	=15
1B-y	2d]	2f	1r
.	2d	2g	.
1A	1f	1c	1a
=16	=16	=16	=16
1.G	1e-X	2r	1.b-y
.	.	1g	.
.	[1d	.	.
2F	.	2a	2a
=17	=17	=17	=17
2G	2d]	2b-y	0dd
2A	2c	4a	.
.	.	4g	.
2.B-y	2.d	2.f	.
4A	4e	4g	.
=18	=18	=18	=18
[0F	2.f	[0a	1cc
.	4e	.	.
.	4d	.	2r
.	4c	.	.
.	2d	.	2a
=19	=19	=19	=19
0F]	2A	0a]	1.cc
.	1c	.	.
.	4B-y	.	2cc
.	4A	.	.
=20	=20	=20	=20
0r	1G	2r	1b-y
.	.	2d	.
.	1F	[1f	2a
.	.	.	2dd
=21	=21	=21	=21
0r	0r	2f]	2cc
.	.	2f	2a
.	.	1e	1cc
=22	=22	=22	=22
0r	0r	2d	1b-y
.	.	2g	.
.	.	2f	2.a
.	.	2d	.
.	.	.	4g
=23	=23	=23	=23
0r	2r	1f	4a
.	.	.	4b-y
.	2A	.	1cc
.	[1c	[1e	.
.	.	.	4b-y
.	.	.	4a
=24	=24	=24	=24
1r	2c]	1e]	2.g
.	2c	.	.
.	.	.	4a
2r	1B-y	1d	4b-y
.	.	.	4cc
2D	.	.	[2dd
=25	=25	=25	=25
1.F	2A	2r	2dd]
.	2d	2.A	4cc
.	.	.	4b-y
.	2c	.	1a
.	.	4B-y	.
2F	2A	4c	.
.	.	4d	.
=26	=26	=26	=26
1E	1c	1e	1g
2D	1B-y	2f	1r
2G	.	2d	.
=27	=27	=27	=27
2F	0A	2r	2r
2D	.	2d	1f
1F	.	2c	.
.	.	2A	2f
=28	=28	=28	=28
1E	0r	1c	2.g
.	.	.	4a
[1D	.	1B-y	4b-y
.	.	.	4cc
.	.	.	[2dd
=29	=29	=29	=29
1D]	2r	1A	2dd]
.	1F	.	4cc
.	.	.	4b-y
1r	.	2r	2a
.	2G	[2c	2g
=30	=30	=30	=30
0r	1A	2c]	1cc
.	.	2c	.
.	1G	2.d	1b-y
.	.	4e	.
=31	=31	=31	=31
0r	1F	4f	2a
.	.	4g	.
.	.	1a	1cc
.	2r	.	.
.	[2c	4g	4b-y
.	.	4f	4a
=32	=32	=32	=32
0r	2c]	2e	2g
.	2d	2d	1dd
.	1e	1g	.
.	.	.	2cc#i
=33	=33	=33	=33
1r	2d	2f	2.dd
.	2.f	4d	.
.	.	4e	8ccL
.	.	.	8b-yJ
2r	.	4f	4a
.	4e	4g	4g
[2F	4d	[2a	[2cc
.	4c	.	.
=34	=34	=34	=34
2F]	1d	4a]	2cc]
.	.	4g	.
2G	.	2.g	2bni
1A	1c	.	1cc
.	.	8fL	.
.	.	8eJ	.
.	.	2f	.
=35	=35	=35	=35
2G	0r	2.B-y	2r
2.B-y	.	.	2f
.	.	4c	.
.	.	4d	[1b-y
4A	.	4e	.
4G	.	[2f	.
4F	.	.	.
=36	=36	=36	=36
1G	0r	2f]	2b-]
.	.	2e	2b-y
[1F	.	1f	2a
.	.	.	4f
.	.	.	4g
=37	=37	=37	=37
1F]	0r	2r	4a
.	.	.	4b-y
.	.	2c	2.cc
1r	.	[1f	.
.	.	.	4b-y
.	.	.	4a
.	.	.	4g
=38	=38	=38	=38
0r	0r	2f]	1a
.	.	2f	.
.	.	1e	2.g
.	.	.	4a
=39	=39	=39	=39
0r	0r	2d	2b-y
.	.	2c	1cc
.	.	1f	.
.	.	.	4b-y
.	.	.	4a
=40	=40	=40	=40
1r	1c	2.e	1g
.	.	4d	.
1F	[1f	2c	1a
.	.	[2d	.
=41	=41	=41	=41
1.B-y	2f]	2d]	0r
.	2e	2G	.
.	1d	1G	.
2B-y	.	.	.
=42	=42	=42	=42
1A	1c	1r	0r
2G	2B-y	2r	.
2F	2A	2d	.
=43	=43	=43	=43
1G	1B-y	2d	1r
.	.	2e	.
[1D	1A	2f	2r
.	.	2f	2a
=44	=44	=44	=44
1D]	0r	1d	2a
.	.	.	2b-y
1r	.	2r	2cc
.	.	2c	2cc
=45	=45	=45	=45
0r	0r	1.f	1a
.	.	.	2r
.	.	2f	2a
=46	=46	=46	=46
0r	0r	1g	1dd
.	.	2.a	[1cc
.	.	4g	.
=47	=47	=47	=47
0r	0r	2f	2cc]
.	.	2e	2cc
.	.	2d	2.dd
.	.	[2g	.
.	.	.	4cc
=48	=48	=48	=48
0r	2r	4g]	2b-y
.	.	4f	.
.	2A	4e	2.cc
.	.	4d	.
.	2A	2.f	.
.	.	.	4a
.	2B-y	.	[2dd
.	.	4g	.
=49	=49	=49	=49
1r	2c	1e	2dd]
.	2c	.	2cc
1D	[1A	[1d	2dd
.	.	.	[2ff
=50	=50	=50	=50
2D	1A]	2d]	2ff]
2E	.	4c	4ee
.	.	4B-y	4dd
2F	2r	2A	1cc
2F	2A	2c	.
=51	=51	=51	=51
1D	1d	1.B-y	2r
.	.	.	1ff
2r	1d	.	.
2D	.	2A	2ff
=52	=52	=52	=52
1F	2c	1A	2.ff
.	1f	.	.
.	.	.	4ee
1F	.	1a	2dd
.	2e	.	[2cc
=53	=53	=53	=53
1G	1d	2.g	2cc]
.	.	.	2b-y
.	.	4f	.
[1A	1c	2.e	2.cc
.	.	4d	4b-y
=54	=54	=54	=54
2A]	2r	2c	4a
.	.	.	4g
2F	2c	1f	1a
2.B-y	[1d	.	.
.	.	2B-y	2g
4A	.	.	.
=55	=55	=55	=55
[0F	2d]	1f	[0a
.	2c	.	.
.	1A	2r	.
.	.	[2c	.
=56	=56	=56	=56
0F_	1r	2c]	0a_
.	.	2c	.
.	2r	2d	.
.	[2c	2c	.
=57	=57	=57	=57
0F]	2c]	1.f	0a]
.	2c	.	.
.	2d	.	.
.	2c	2e	.
=58	=58	=58	=58
2r	1.f	1d	0r
1F	.	.	.
.	.	1c	.
2F	2f	.	.
=59	=59	=59	=59
2G	0d	2r	0r
2F	.	1f	.
[1B-y	.	.	.
.	.	2f	.
=60	=60	=60	=60
2B-]	2r	2g	0r
2A	2c	2f	.
1G	2d	1b-y	.
.	2e	.	.
=61	=61	=61	=61
0F	1f	1a	2r
.	.	.	1cc
.	2c	2.f	.
.	[2f	.	2cc
.	.	4e	.
=62	=62	=62	=62
0r	2f]	4d	2dd
.	.	4c	.
.	2e	1g	2cc
.	1d	.	1ff
.	.	2f	.
=63	=63	=63	=63
0r	2r	2a	2.ee
.	1c	1g	.
.	.	.	4dd
.	.	.	4ee
.	.	.	4dd
.	2c	2e	4cc
.	.	.	4b-y
=64	=64	=64	=64
2r	2d	2.f	0a
1F	2c	.	.
.	.	8eL	.
.	.	8dJ	.
.	1f	1c	.
2F	.	.	.
=65	=65	=65	=65
2G	1.d	1r	2r
2F	.	.	1f
[1B-y	.	2r	.
.	2c	4B-y	2f
.	.	4c	.
=66	=66	=66	=66
2B-]	0B-y	4d	2g
.	.	4e	.
2A	.	1f	2f
1G	.	.	1b-y
.	.	2e	.
=67	=67	=67	=67
[0Fl	1c	2f	0a
.	.	1c	.
.	1r	.	.
.	.	2c	.
=68	=68	=68	=68
0F_	2r	2d	[0al
.	1c	2c	.
.	.	[1f	.
.	2c	.	.
=69	=69	=69	=69
0F_	2d	2f]	0a_
.	2c	2e	.
.	[1f	1d	.
=70	=70	=70	=70
0F_	2f]	1c	0a_
.	2e	.	.
.	1d	[1fl	.
=	=	=	=
00F]	00c	00f]	00a]
=||	=||	=||	=||
*M2/1	*M2/1	*M2/1	*M2/1
*met(C|)	*met(C|)	*met(C|)	*met(C|)
!!section: Secunda pars: Eya ergo, O Barbara
!!!OMD: Secunda pars: Eya ergo, O Barbara
!	!	!	!LO:TX:a:t=Secunda Pars&colon; Eya ergo, O Barbara 
1F	0r	0r	0r
2F	.	.	.
2G	.	.	.
=71	=71	=71	=71
1A	1c	0r	0r
1F	2c	.	.
.	2d	.	.
=72	=72	=72	=72
1c	1e	1g	0r
2.A	1c	2.f	.
4G	.	4g	.
=73	=73	=73	=73
1F	1f	1a	1cc
1r	2e	2r	2cc
.	2d	2f	2dd
=74	=74	=74	=74
0r	1c	2g	1ee
.	.	2g	.
.	1r	1a	1cc
=75	=75	=75	=75
0r	2r	2f	1ff
.	2d	2f	.
.	2.c	2g	2.ee
.	.	2g	.
.	4B-y	.	4dd
=76	=76	=76	=76
1r	1A	1a	1cc
1B-y	1d	2r	1r
.	.	2g	.
=77	=77	=77	=77
2A	2c	2f	0r
2G	2B-y	2e	.
1F	1c	1f	.
=78	=78	=78	=78
1B-y	2r	2r	1b-y
.	2d	2f	.
2F	2c	2f	2a
2G	2B-y	2d	2g
=79	=79	=79	=79
[0F	0c	1f	1a
.	.	1r	2r
.	.	.	[2cc
=80	=80	=80	=80
1F]	0r	1f	2cc]
.	.	.	2dd
1r	.	2g	2ee
.	.	2a	2cc
=81	=81	=81	=81
0r	1r	2f	2.ff
.	.	1b-y	.
.	.	.	4ee
.	2r	.	2dd
.	[2c	[2a	[2cc
=82	=82	=82	=82
0r	2c]	4a]	2cc]
.	.	4g	.
.	2d	1f	4b-y
.	.	.	4a
.	2e	.	1g
.	2c	2e	.
=83	=83	=83	=83
2r	1f	2d	2a
1F	.	2c	2.cc
.	1d	2r	.
.	.	.	8b-yL
.	.	.	8aJ
2G	.	2g	2b-y
=84	=84	=84	=84
2A	2r	2e	4cc
.	.	.	4b-y
2F	2c	2.f	4a
.	.	.	4g
1B-y	[1d	.	2f
.	.	4e	.
.	.	4d	[2b-y
.	.	4c	.
=85	=85	=85	=85
1G	2d]	1B-y	2b-]
.	2d	.	4a
.	.	.	4g
2r	1f	2.d	1a
2F	.	.	.
.	.	4c	.
=86	=86	=86	=86
1.G	1e	2B-y	2.g
.	.	2G	.
.	.	.	4a
.	2d	1g	[1b-y
2G	2B-y	.	.
=87	=87	=87	=87
1B-y	1d	1f	1b-]
1A	2.c	2r	1r
.	.	2f	.
.	4d	.	.
=88	=88	=88	=88
2G	2.e	1.g	2r
2C	.	.	2cc
.	8dL	.	.
.	8cJ	.	.
[1G	2B-y	.	[1dd
.	2G	2g	.
=89	=89	=89	=89
1G]	1d	1b-y	2dd]
.	.	.	2dd
1D	2r	1a	1ff
.	2A	.	.
=90	=90	=90	=90
0r	1c	2g	1ee
.	.	2e	.
.	2B-y	1g	2dd
.	2G	.	2b-y
=91	=91	=91	=91
0r	2.B-y	2d	1dd
.	.	2g	.
.	4c	.	.
.	1d	2f	2a
.	.	2d	2dd
=92	=92	=92	=92
1r	1A	2.e	2.cc
.	.	4d	4b-y
2r	1r	2e	4a
.	.	.	4g
[2d	.	[2f	[2b-y
=93	=93	=93	=93
2d]	1r	4f]	4b-]
.	.	4e	4a
2c	.	1e	1a
1B-y	2r	.	.
.	[2d	2d	2g
=94	=94	=94	=94
1A	2d]	1e	1a
.	2c	.	.
1r	1B-y	1f	1r
=95	=95	=95	=95
1.F	1A	1r	0cc
.	2r	[1f	.
2E	[2A	.	.
=96	=96	=96	=96
1D	2A]	1f]	1dd
.	2F	.	.
1C	1c	1g	1ee
=97	=97	=97	=97
[0F	0A	1a	1cc
.	.	[1f	2r
.	.	.	2cc
=98	=98	=98	=98
0F]	2r	2f]	1.ff
.	2c	4e	.
.	.	4d	.
.	[1f	1c	.
.	.	.	2ff
=99	=99	=99	=99
0r	2f]	1r	2dd
.	2f	.	2.ff
.	2d	2r	.
.	.	.	4ee
.	2f	2d	[2dd
=100	=100	=100	=100
1r	1e	1.g	4dd]
.	.	.	4cc
.	.	.	1cc
1G	1d	.	.
.	.	2g	2bni
=101	=101	=101	=101
1.c	1c	1e	2cc
.	.	.	2g
.	1r	1g	[1cc
2c	.	.	.
=102	=102	=102	=102
1A	0r	1f	2cc]
.	.	.	2cc
1c	.	2.e	1a
.	.	4c	.
=103	=103	=103	=103
2B-y	2r	4d	2g
.	.	4e	.
2A	1c	2.f	2a
1G	.	.	1b-y
.	.	8eL	.
.	.	8dJ	.
.	2B-y	2e	.
=104	=104	=104	=104
1F	1c	2f	1a
.	.	1a	.
2r	1A	.	2r
2F	.	2a	[2cc
=105	=105	=105	=105
1G	1d	1g	2cc]
.	.	.	2b-y
1A	1c	1e	1cc
=106	=106	=106	=106
1F	1.f	2r	1a
.	.	1a	.
1B-y	.	.	1dd
.	2d	2g	.
=107	=107	=107	=107
1A	2e	1a	1cc
.	2f	.	.
[1B-y	1d	2.f	[1ff
.	.	4e	.
=108	=108	=108	=108
2B-]	2r	1d	2ff]
2B-y	1g	.	2dd
2c	.	1r	2ee
2d	2f	.	2ff
=109	=109	=109	=109
1G	2g	2r	1dd
.	4f	1g	.
.	4e	.	.
1r	1d	.	[1ff
.	.	2f	.
=110	=110	=110	=110
2r	1c	1g	2ff]
1c	.	.	2ee
.	1f	2r	1dd
2B-y	.	[2b-y	.
=111	=111	=111	=111
0c	2f	2b-]	[0cc
.	4e	2a	.
.	4d	.	.
.	1e	1g	.
=112	=112	=112	=112
0F	1f	[0a	0cc]
.	2r	.	.
.	2c	.	.
=113	=113	=113	=113
2r	0f	1a]	2r
2F	.	.	2a
[1B-y	.	2r	[1dd
.	.	2d	.
=114	=114	=114	=114
1B-]	1d	2.f	2dd]
.	.	.	2b-y
.	.	4g	.
1A	2r	[1a	1cc
.	2c	.	.
=115	=115	=115	=115
2r	0f	1a]	2r
2F	.	.	2a
[1B-y	.	2r	[1dd
.	.	2d	.
=116	=116	=116	=116
1B-]	1d	2.f	2dd]
.	.	.	2b-y
.	.	4g	.
1A	2r	[1a	1cc
.	2c	.	.
=117	=117	=117	=117
2r	0f	1a]	2r
2F	.	.	2a
[1B-y	.	2r	[1dd
.	.	2d	.
=118	=118	=118	=118
1B-]	1d	0f	2dd]
.	.	.	2b-y
1A	1c	.	1cc
=119	=119	=119	=119
1.G	1.B-y	1e	0r
.	.	[1d	.
2G	4A	.	.
.	4G	.	.
=120	=120	=120	=120
1.F	1.A	2d]	2r
.	.	4c	2cc
.	.	4B-y	.
.	.	4A	[1ff
.	.	4G	.
2E	2F	[2c	.
=121	=121	=121	=121
1D	1F	2c]	1ff]
.	.	2Bni	.
1C	1G	1c	1ee
=122	=122	=122	=122
1.G	2r	2d	1.dd
.	1B-y	2.g	.
.	.	8fL	.
.	.	8eJ	.
2B-y	2B-y	2f	2dd
=123	=123	=123	=123
2A	2c	2c	2cc
4G	1d	2.f	4b-y
4F	.	.	4a
1G	.	.	2b-y
.	.	8eL	.
.	.	8dJ	.
.	4c	2e	2b-y
.	4B-y	.	.
=124	=124	=124	=124
0F	1c	1.f	0a
.	2r	.	.
.	2c	2e	.
=125	=125	=125	=125
2r	0f	2d	2r
2F	.	2c	2a
[1B-y	.	2r	[1dd
.	.	2d	.
=126	=126	=126	=126
1B-]	1d	2.f	2dd]
.	.	.	2b-y
.	.	4g	.
1A	2r	[1a	1cc
.	2c	.	.
=127	=127	=127	=127
2r	0f	1a]	2r
2F	.	.	2a
[1B-y	.	2r	[1dd
.	.	2d	.
=128	=128	=128	=128
1B-]	1d	2.f	2dd]
.	.	.	2b-y
.	.	4g	.
1A	2r	[1a	1cc
.	2c	.	.
=129	=129	=129	=129
2r	1f	1a]	2r
2F	.	.	2a
[1B-y	1d	1r	[1dd
=130	=130	=130	=130
2B-]	2r	2r	2dd]
2G	2g	1d	2b-y
1B-y	2f	.	1dd
.	2d	2d	.
=131	=131	=131	=131
2A	1f	1.a	2cc
2F	.	.	2a
1A	2e	.	1cc
.	2c	2f	.
=132	=132	=132	=132
1G	2.d	2g	1b-y
.	.	2g	.
.	4e	.	.
2r	[1f	1a	2r
2F	.	.	2a
=133	=133	=133	=133
1.B-y	1f]	1d	1.dd
.	2r	2r	.
2G	2g	[2d	2b-y
=134	=134	=134	=134
1B-y	2f	2d]	1dd
.	2d	2d	.
2A	1f	[1a	2cc
2F	.	.	2a
=135	=135	=135	=135
1A	2e	2a]	1cc
.	2c	2f	.
1G	2.d	2g	1b-y
.	.	2g	.
.	4e	.	.
=136	=136	=136	=136
0F	2f	1c	0a
.	4e	.	.
.	4d	.	.
.	1c	1f	.
=137	=137	=137	=137
[0C	2.e	2.g	2.cc
.	4d	4f	4b-y
.	2.c	2.e	2a
.	.	.	[2g
.	4B-y	4d	.
=138	=138	=138	=138
0C]	2A	[0cl	4g]
.	.	.	4f
.	4G	.	1f
.	4F	.	.
.	1G	.	.
.	.	.	2e
=139	=139	=139	=139
00Fl	00Fl	00c]	00fl
==	==	==	==
*-	*-	*-	*-
!!!system-decoration: [*]
!!!RDF**kern: i = editorial accidental
!!!RDF**kern: l = terminal long
!!!ENC: Benjamin Ory
!!!END: 2021/4/6
!!!EED: Benjamin Ory
!!!EEV: 2021/05/12
!!!YEC: Copyright 2021 Benjamin Ory, All Rights Reserved
!!!ONB: Translated from MusicXML on 2021/05/12
